X:1
T:Rock of Ages, 77.77.77
T:Rock of Ages, 77.77.77
T:George Job Elvey (1816-1893)
T:Public Domain Courtesy of the Cyber Hymnal™
C:George Job Elvey (1816-1893)
Z:Public Domain
Z:Courtesy of the Cyber Hymnal™
%%score ( 1 2 ) ( 3 4 )
L:1/8
Q:1/4=112
M:4/4
K:A
V:1 treble 
V:2 treble 
V:3 bass 
V:4 bass 
V:1
 [Ec]2 [Ec]2 [Ed]2 [Ec]2 | [Ec]2 [DB]2 [CA]4 | [^DB]2 [DF]2 [EG]2 E2 | [EA]2 [Ec]2 [EB]4 | %4
 [Ec]2 [Ec]2 [Ed]2 [Ec]2 | [Cc]2 [CB]2 [CA]4 | [FA]2 [FA]2 [GB]2 [FA]2 | [^EA]2 [EG]2 F4 | %8
 [DF]2 [DF]2 [DE]2 [CE]2 | [CA]2 [^DA]2 [EG]4 | [EA]2 [=Ge]2 [Fd]2 (cB) | [EA]2 [EG]2 [EA]4 |] %12
V:2
 x8 | x8 | x6 E2 | x8 | x8 | x8 | x8 | x4 F4 | x8 | x8 | x6 F2 | x8 |] %12
V:3
 A,2 A,2 [G,B,]2 A,2 | [E,G,]2 [E,G,]2 [F,A,]4 | [B,,F,]2 [B,,B,]2 [E,B,]2 [D,G,]2 | %3
 [C,A,]2 [A,,A,]2 [E,G,]4 | A,2 A,2 [G,B,]2 A,2 | [^E,G,]2 [E,G,]2 [F,A,]4 | %6
 [F,C]2 [F,C]2 [^E,C]2 [F,C]2 | [C,C]2 [C,B,]2 [D,A,]4 | [B,,B,]2 [A,,B,]2 [G,,B,]2 [A,,B,]2 | %9
 [F,,A,]2 [B,,B,]2 B,4 | [C,A,]2 [C,A,]2 [D,A,]2 [D,D]2 | [E,C]2 [E,B,]2 [A,,C]4 |] %12
V:4
 A,2 A,2 A,2 x2 | x8 | x8 | x8 | A,2 A,2 A,2 x2 | x8 | x8 | x8 | x8 | x4 (E,2 D,2) | x8 | x8 |] %12

